icon-themes/breeze_svg/cmd/lc_sourcecharstyle.svg

<svg viewBox="0 0 24 24" xmlns="http://www.w3.org/2000/svg"><path d="m12.5 4-4 15.753906 1 .246094 4-15.7539062zm-5.2460938 3-3.9746093 4.644531-.2792969.355469.2792969.355469 3.9746093 4.644531.7460938-.708984-3.6640625-4.291016 3.6640625-4.2910156zm7.4921878 0-.746094.7089844 3.664062 4.2910156-3.664062 4.291016.746094.708984 3.974609-4.644531.279297-.355469-.279297-.355469z" fill="#4d4d4d"/></svg>

<svg xmlns="http://www.w3.org/2000/svg" viewBox="0 0 24 24">
 <path 
     style="fill:#4d4d4d" 
     d="M 12.5 4 L 8.5 19.753906 L 9.5 20 L 13.5 4.2460938 L 12.5 4 z M 7.2539062 7 L 3.2792969 11.644531 L 3 12 L 3.2792969 12.355469 L 7.2539062 17 L 8 16.291016 L 4.3359375 12 L 8 7.7089844 L 7.2539062 7 z M 14.746094 7 L 14 7.7089844 L 17.664062 12 L 14 16.291016 L 14.746094 17 L 18.720703 12.355469 L 19 12 L 18.720703 11.644531 L 14.746094 7 z "
     />
 </svg>
